assets/icons/tram/tram_T10_carto_RVB.svg

<svg id="tram_T10_carto_RVB" xmlns="http://www.w3.org/2000/svg" width="311.7" height="311.8" viewBox="0 0 311.7 311.8">
	<path id="Tracé_17" data-name="Tracé 17" d="M28.3,311.8A28.338,28.338,0,0,1,0,283.5V28.3A28.338,28.338,0,0,1,28.3,0H283.4a28.338,28.338,0,0,1,28.3,28.3V283.4a28.338,28.338,0,0,1-28.3,28.3H28.3Z" fill="#fff"/>
	<path id="Tracé_18" data-name="Tracé 18" d="M81.6,121.6v89.6H57.5V121.6H23.9V102h91.3v19.6Zm88,89.6V125.4c-6.6,5.3-17.2,10.4-24.4,13.6l-7.4-16.7c11.4-4.8,25.2-12.1,36-20.3h19V211.2Zm78.2,2.9c-32.9,0-39.4-32.5-39.4-57.7s7.1-57.7,40.1-57.7c32.9,0,39.4,32.5,39.4,57.7s-7.1,57.7-40.1,57.7m.3-97c-15.8,0-16.2,28.2-16.2,39.3,0,11,.8,39.4,16.2,39.4,15.5,0,16.1-28.6,16.1-39.4,0-11.4-.4-39.3-16.1-39.3"/>
	<path id="Tracé_19" data-name="Tracé 19" d="M283.5,56.5H28.3A14.19,14.19,0,0,1,14.1,42.3V28.2A14.19,14.19,0,0,1,28.3,14H283.4a14.19,14.19,0,0,1,14.2,14.2V42.4a14.084,14.084,0,0,1-14.1,14.1m14.1,226.8V269.1a14.19,14.19,0,0,0-14.2-14.2H28.3a14.19,14.19,0,0,0-14.2,14.2v14.2a14.19,14.19,0,0,0,14.2,14.2H283.4a14.19,14.19,0,0,0,14.2-14.2" fill="#6e6e00"/>
</svg>

<?xml version="1.0" encoding="utf-8"?>
<!-- Generator: Adobe Illustrator 26.3.1, SVG Export Plug-In . SVG Version: 6.00 Build 0)  -->
<svg version="1.1" id="Layer_1" xmlns="http://www.w3.org/2000/svg" xmlns:xlink="http://www.w3.org/1999/xlink" x="0px" y="0px"
	 viewBox="0 0 311.8 311.8" style="enable-background:new 0 0 311.8 311.8;" xml:space="preserve">
<style type="text/css">
	.st0{fill:#FFFFFF;}
	.st1{fill:#6E6E00;}
</style>
<g>
	<path class="st0" d="M28.3,311.8C12.7,311.8,0,299.1,0,283.5V28.3C0,12.7,12.7,0,28.3,0h255.1c15.6,0,28.3,12.7,28.3,28.3v255.1
		c0,15.6-12.7,28.3-28.3,28.3H28.3z"/>
	<path d="M81.6,121.6v89.6H57.5v-89.6H23.9V102h91.3v19.6H81.6z M169.6,211.2v-85.8c-6.6,5.3-17.2,10.4-24.4,13.6l-7.4-16.7
		c11.4-4.8,25.2-12.1,36-20.3h19v109.2H169.6z M247.8,214.1c-32.9,0-39.4-32.5-39.4-57.7c0-25.2,7.1-57.7,40.1-57.7
		c32.9,0,39.4,32.5,39.4,57.7C287.9,181.6,280.8,214.1,247.8,214.1 M248.1,117.1c-15.8,0-16.2,28.2-16.2,39.3
		c0,11,0.8,39.4,16.2,39.4c15.5,0,16.1-28.6,16.1-39.4C264.2,145,263.8,117.1,248.1,117.1"/>
	<path class="st1" d="M283.5,56.5H28.3c-7.8,0-14.2-6.3-14.2-14.2V28.2c0-7.8,6.3-14.2,14.2-14.2h255.1c7.8,0,14.2,6.3,14.2,14.2
		v14.2C297.6,50.2,291.3,56.5,283.5,56.5 M297.6,283.3v-14.2c0-7.8-6.3-14.2-14.2-14.2H28.3c-7.8,0-14.2,6.3-14.2,14.2v14.2
		c0,7.8,6.3,14.2,14.2,14.2h255.1C291.3,297.5,297.6,291.1,297.6,283.3"/>
</g>
</svg>
